X: 1
T: I Have No Money
M: 4/4
L: 1/8
R: reel
K: Dmaj
DE | FAdB A2 AG | FAdA F~E3 | FAdB ABdf | afeg fddA |
| FAdB A2 AG | FAdA F~E3 | FAdB ABdf | afeg fddf ||
| afef ~d3f | afeg fBBf | afef d2 dB | ABAG FDDf |
| afef ~d3f | afeg fBBf | ~a3f efdB | ABAG FDDE ||
